src/lib/packages/icons/src/assets/filled/check-square.svg

<svg width="24" height="24" viewBox="0 0 24 24" fill="none" xmlns="http://www.w3.org/2000/svg">
<path d="M17.63 3H6.38C4.13 3 3 4.12 3 6.37V17.62C3 19.87 4.13 21 6.38 21H17.63C19.88 21 21 19.87 21 17.62V6.37C21 4.12 19.88 3 17.63 3ZM16.03 10.2L11.36 14.86C11.22 15.01 11.03 15.08 10.83 15.08C10.64 15.08 10.45 15.01 10.3 14.86L7.96997 12.53C7.67997 12.24 7.67997 11.76 7.96997 11.47C8.25997 11.18 8.74003 11.18 9.03003 11.47L10.83 13.27L14.97 9.14001C15.26 8.84001 15.74 8.84001 16.03 9.14001C16.32 9.43001 16.32 9.90001 16.03 10.2Z" fill="currentColor"/>
</svg>

<svg xmlns="http://www.w3.org/2000/svg" width="24" height="24" fill="none"><path fill="currentColor" d="M17.63 3H6.38C4.13 3 3 4.12 3 6.37v11.25C3 19.87 4.13 21 6.38 21h11.25c2.25 0 3.37-1.13 3.37-3.38V6.37C21 4.12 19.88 3 17.63 3Zm-1.6 7.2-4.67 4.66a.71.71 0 0 1-.53.22c-.19 0-.38-.07-.53-.22l-2.33-2.33a.754.754 0 0 1 0-1.06c.29-.29.77-.29 1.06 0l1.8 1.8 4.14-4.13c.29-.3.77-.3 1.06 0 .29.29.29.76 0 1.06Z"/></svg>
